;FLAVOR:Marlin
;TIME:326
;Filament used: 0.141114m
;Layer height: 0.28
;MINX:86.5
;MINY:96
;MINZ:0.28
;MAXX:133.5
;MAXY:124
;MAXZ:4.76
;Generated with Cura_SteamEngine 4.4.1
M140 S70
M105
M190 S70
M104 S200
M105
M109 S200
M82 ;absolute extrusion mode
M201 X500.00 Y500.00 Z100.00 E5000.00 ;Setup machine max acceleration
M203 X500.00 Y500.00 Z10.00 E50.00 ;Setup machine max feedrate
M204 P500.00 R1000.00 T500.00 ;Setup Print/Retract/Travel acceleration
M205 X8.00 Y8.00 Z0.40 E5.00 ;Setup Jerk
M220 S100 ;Reset Feedrate
M221 S100 ;Reset Flowrate

G28 ;Home

G92 E0 ;Reset Extruder
G1 Z2.0 F3000 ;Move Z Axis up
G1 X10.1 Y20 Z0.28 F5000.0 ;Move to start position
G1 X10.1 Y200.0 Z0.28 F1500.0 E15 ;Draw the first line
G1 X10.4 Y200.0 Z0.28 F5000.0 ;Move to side a little
G1 X10.4 Y20 Z0.28 F1500.0 E30 ;Draw the second line
G92 E0 ;Reset Extruder
G1 Z2.0 F3000 ;Move Z Axis up

G92 E0
G92 E0
G1 F1500 E-6.5
;LAYER_COUNT:17
;LAYER:0
M107
G0 F6000 X90.386 Y98.627 Z0.28
;TYPE:SKIRT
G1 F1500 E0
G1 F1200 X91.126 Y98.051 E0.04367
G1 X91.912 Y97.539 E0.08735
G1 X92.739 Y97.097 E0.13101
G1 X93.601 Y96.727 E0.17469
G1 X94.491 Y96.431 E0.21836
G1 X95.403 Y96.213 E0.26203
G1 X96.33 Y96.072 E0.30569
G1 X97.201 Y96.013 E0.34634
G1 X97.522 Y96.004 E0.36129
G1 X97.83 Y96 E0.37563
G1 X121.793 Y96 E1.49145
G1 X121.951 Y96.001 E1.49881
G1 X122.649 Y96.011 E1.53131
G1 X123.585 Y96.065 E1.57497
G1 X124.513 Y96.197 E1.61862
G1 X125.427 Y96.409 E1.66231
G1 X126.319 Y96.698 E1.70597
G1 X127.184 Y97.061 E1.74965
G1 X128.014 Y97.497 E1.7933
G1 X128.805 Y98.002 E1.837
G1 X129.549 Y98.573 E1.88067
G1 X130.242 Y99.205 E1.92435
G1 X130.879 Y99.893 E1.968
G1 X131.454 Y100.634 E2.01168
G1 X131.965 Y101.42 E2.05533
G1 X132.407 Y102.248 E2.09904
G1 X132.776 Y103.11 E2.1427
G1 X133.071 Y104 E2.18636
G1 X133.289 Y104.912 E2.23002
G1 X133.429 Y105.84 E2.27372
G1 X133.487 Y106.701 E2.3139
G1 X133.496 Y107.021 E2.32881
G1 X133.5 Y107.33 E2.3432
G1 X133.5 Y112.264 E2.57295
G1 X133.499 Y112.4 E2.57928
G1 X133.49 Y113.127 E2.61314
G1 X133.439 Y114.064 E2.65683
G1 X133.307 Y114.992 E2.70048
G1 X133.098 Y115.906 E2.74414
G1 X132.811 Y116.799 E2.78781
G1 X132.449 Y117.665 E2.83152
G1 X132.015 Y118.496 E2.87517
G1 X131.511 Y119.287 E2.91885
G1 X130.942 Y120.032 E2.9625
G1 X130.311 Y120.727 E3.00621
G1 X129.624 Y121.365 E3.04986
G1 X128.885 Y121.942 E3.09352
G1 X128.099 Y122.454 E3.1372
G1 X127.273 Y122.897 E3.18085
G1 X126.411 Y123.269 E3.22456
G1 X125.522 Y123.565 E3.26819
G1 X124.61 Y123.785 E3.31188
G1 X123.683 Y123.926 E3.35554
G1 X122.799 Y123.987 E3.3968
G1 X122.478 Y123.996 E3.41175
G1 X122.17 Y124 E3.42609
G1 X98.207 Y124 E4.54191
G1 X98.065 Y123.999 E4.54852
G1 X97.367 Y123.99 E4.58103
G1 X96.431 Y123.938 E4.62468
G1 X95.502 Y123.806 E4.66837
G1 X94.588 Y123.596 E4.71204
G1 X93.695 Y123.309 E4.75572
G1 X92.83 Y122.946 E4.7994
G1 X91.999 Y122.512 E4.84305
G1 X91.208 Y122.008 E4.88673
G1 X90.463 Y121.438 E4.93041
G1 X89.769 Y120.807 E4.97408
G1 X89.132 Y120.12 E5.01771
G1 X88.555 Y119.38 E5.0614
G1 X88.043 Y118.594 E5.10508
G1 X87.6 Y117.767 E5.14877
G1 X87.229 Y116.906 E5.19242
G1 X86.933 Y116.016 E5.2361
G1 X86.714 Y115.104 E5.27977
G1 X86.573 Y114.177 E5.32343
G1 X86.513 Y113.288 E5.36492
G1 X86.504 Y112.955 E5.38043
G1 X86.5 Y112.658 E5.39426
G1 X86.5 Y107.674 E5.62634
G1 X86.501 Y107.525 E5.63328
G1 X86.51 Y106.86 E5.66424
G1 X86.563 Y105.924 E5.7079
G1 X86.695 Y104.995 E5.75159
G1 X86.906 Y104.081 E5.79527
G1 X87.194 Y103.189 E5.83892
G1 X87.557 Y102.324 E5.8826
G1 X87.992 Y101.493 E5.92627
G1 X88.496 Y100.703 E5.96991
G1 X89.066 Y99.958 E6.01359
G1 X89.698 Y99.264 E6.05729
G1 X90.386 Y98.627 E6.10095
G0 F6000 X90.774 Y98.823
G1 F1200 X91.51 Y98.27 E6.14382
G1 X92.291 Y97.782 E6.1867
G1 X93.111 Y97.364 E6.22956
G1 X93.965 Y97.019 E6.27245
G1 X94.845 Y96.749 E6.31531
G1 X95.745 Y96.557 E6.35816
G1 X96.659 Y96.443 E6.40105
G1 X97.212 Y96.413 E6.42684
G1 X97.533 Y96.404 E6.44179
G1 X97.83 Y96.4 E6.45562
G1 X121.793 Y96.4 E7.57144
G1 X121.945 Y96.401 E7.57852
G1 X122.643 Y96.411 E7.61102
G1 X123.562 Y96.464 E7.65389
G1 X124.473 Y96.597 E7.69676
G1 X125.369 Y96.808 E7.73962
G1 X126.243 Y97.096 E7.78247
G1 X127.09 Y97.459 E7.82538
G1 X127.901 Y97.894 E7.86823
G1 X128.671 Y98.398 E7.91108
G1 X129.395 Y98.967 E7.95396
G1 X130.067 Y99.597 E7.99685
G1 X130.682 Y100.282 E8.03972
G1 X131.235 Y101.018 E8.08259
G1 X131.722 Y101.799 E8.12544
G1 X132.139 Y102.62 E8.16832
G1 X132.484 Y103.474 E8.21121
G1 X132.753 Y104.354 E8.25406
G1 X132.945 Y105.255 E8.29695
G1 X133.058 Y106.168 E8.33979
G1 X133.087 Y106.712 E8.36516
G1 X133.096 Y107.032 E8.38006
G1 X133.1 Y107.33 E8.39394
G1 X133.1 Y112.264 E8.62369
G1 X133.099 Y112.395 E8.62979
G1 X133.09 Y113.122 E8.66364
G1 X133.039 Y114.041 E8.7065
G1 X132.908 Y114.953 E8.7494
G1 X132.698 Y115.849 E8.79226
G1 X132.412 Y116.724 E8.83512
G1 X132.051 Y117.571 E8.87799
G1 X131.617 Y118.383 E8.92087
G1 X131.115 Y119.155 E8.96375
G1 X130.547 Y119.88 E9.00663
G1 X129.919 Y120.553 E9.04949
G1 X129.235 Y121.169 E9.09236
G1 X128.5 Y121.723 E9.13521
G1 X127.72 Y122.212 E9.17808
G1 X126.9 Y122.631 E9.22096
G1 X126.047 Y122.977 E9.26382
G1 X125.167 Y123.248 E9.3067
G1 X124.267 Y123.441 E9.34956
G1 X123.353 Y123.556 E9.39245
G1 X122.788 Y123.587 E9.4188
G1 X122.467 Y123.596 E9.43375
G1 X122.17 Y123.6 E9.44759
G1 X98.207 Y123.6 E10.5634
G1 X98.07 Y123.599 E10.56978
G1 X97.372 Y123.59 E10.60229
G1 X96.453 Y123.538 E10.64515
G1 X95.542 Y123.407 E10.688
G1 X94.646 Y123.197 E10.73086
G1 X93.771 Y122.91 E10.77374
G1 X92.924 Y122.548 E10.81663
G1 X92.112 Y122.114 E10.8595
G1 X91.341 Y121.612 E10.90234
G1 X90.616 Y121.044 E10.94522
G1 X89.943 Y120.415 E10.98812
G1 X89.328 Y119.731 E11.03095
G1 X88.774 Y118.996 E11.07381
G1 X88.286 Y118.215 E11.11669
G1 X87.867 Y117.395 E11.15957
G1 X87.521 Y116.542 E11.20243
G1 X87.251 Y115.662 E11.24529
G1 X87.058 Y114.761 E11.2882
G1 X86.944 Y113.848 E11.33104
G1 X86.913 Y113.277 E11.35767
G1 X86.904 Y112.944 E11.37318
G1 X86.9 Y112.658 E11.3865
G1 X86.9 Y107.674 E11.61857
G1 X86.901 Y107.531 E11.62523
G1 X86.91 Y106.866 E11.6562
G1 X86.962 Y105.946 E11.69911
G1 X87.094 Y105.035 E11.74197
G1 X87.305 Y104.139 E11.78483
G1 X87.592 Y103.264 E11.82771
G1 X87.955 Y102.418 E11.87058
G1 X88.389 Y101.606 E11.91345
G1 X88.892 Y100.835 E11.95632
G1 X89.461 Y100.111 E11.9992
G1 X90.089 Y99.439 E12.04202
G1 X90.774 Y98.823 E12.08492
G0 F6000 X91.162 Y99.024
G1 F1200 X91.894 Y98.494 E12.127
G1 X92.669 Y98.031 E12.16904
G1 X93.482 Y97.638 E12.21109
G1 X94.327 Y97.318 E12.25316
G1 X95.196 Y97.075 E12.29518
G1 X96.084 Y96.909 E12.33724
G1 X97.223 Y96.813 E12.39047
G1 X97.544 Y96.804 E12.40542
G1 X97.83 Y96.8 E12.41874
G1 X121.793 Y96.8 E13.53456
G1 X121.939 Y96.801 E13.54135
G1 X122.637 Y96.811 E13.57386
G1 X123.539 Y96.864 E13.61593
G1 X124.432 Y96.996 E13.65797
G1 X125.31 Y97.207 E13.70001
G1 X126.166 Y97.495 E13.74207
G1 X126.993 Y97.857 E13.7841
G1 X127.785 Y98.292 E13.82618
G1 X128.536 Y98.794 E13.86824
G1 X129.239 Y99.361 E13.9103
G1 X129.889 Y99.988 E13.95235
G1 X130.481 Y100.67 E13.9944
G1 X131.011 Y101.401 E14.03645
G1 X131.473 Y102.177 E14.0785
G1 X131.866 Y102.99 E14.12055
G1 X132.184 Y103.835 E14.16259
G1 X132.427 Y104.705 E14.20465
G1 X132.592 Y105.593 E14.24671
G1 X132.687 Y106.723 E14.29951
G1 X132.696 Y107.043 E14.31442
G1 X132.7 Y107.33 E14.32778
G1 X132.7 Y112.264 E14.55753
G1 X132.699 Y112.39 E14.5634
G1 X132.69 Y113.117 E14.59725
G1 X132.639 Y114.019 E14.63932
G1 X132.508 Y114.913 E14.68139
G1 X132.299 Y115.791 E14.72342
G1 X132.013 Y116.648 E14.76549
G1 X131.652 Y117.476 E14.80755
G1 X131.22 Y118.268 E14.84955
G1 X130.719 Y119.02 E14.89163
G1 X130.153 Y119.724 E14.93369
G1 X129.528 Y120.375 E14.97571
G1 X128.847 Y120.969 E15.01779
G1 X128.116 Y121.5 E15.05986
G1 X127.342 Y121.964 E15.10188
G1 X126.529 Y122.358 E15.14395
G1 X125.685 Y122.678 E15.18598
G1 X124.815 Y122.923 E15.22807
G1 X123.928 Y123.089 E15.27009
G1 X122.777 Y123.187 E15.32388
G1 X122.456 Y123.196 E15.33883
G1 X122.17 Y123.2 E15.35215
G1 X98.207 Y123.2 E16.46797
G1 X98.075 Y123.199 E16.47411
G1 X97.377 Y123.19 E16.50662
G1 X96.476 Y123.139 E16.54864
G1 X95.582 Y123.007 E16.59072
G1 X94.704 Y122.798 E16.63275
G1 X93.847 Y122.511 E16.67483
G1 X93.02 Y122.15 E16.71685
G1 X92.227 Y121.717 E16.75892
G1 X91.476 Y121.216 E16.80096
G1 X90.772 Y120.65 E16.84302
G1 X90.121 Y120.024 E16.88507
G1 X89.528 Y119.343 E16.92712
G1 X88.998 Y118.612 E16.96916
G1 X88.534 Y117.837 E17.01122
G1 X88.14 Y117.024 E17.05329
G1 X87.82 Y116.18 E17.09532
G1 X87.576 Y115.31 E17.1374
G1 X87.41 Y114.422 E17.17946
G1 X87.313 Y113.267 E17.23343
G1 X87.304 Y112.934 E17.24894
G1 X87.3 Y112.658 E17.2618
G1 X87.3 Y107.674 E17.49387
G1 X87.301 Y107.536 E17.5003
G1 X87.31 Y106.871 E17.53127
G1 X87.362 Y105.969 E17.57334
G1 X87.494 Y105.076 E17.61537
G1 X87.704 Y104.198 E17.65741
G1 X87.991 Y103.341 E17.69949
G1 X88.353 Y102.514 E17.74153
G1 X88.786 Y101.722 E17.78356
G1 X89.288 Y100.971 E17.82562
G1 X89.855 Y100.267 E17.86771
G1 X90.481 Y99.617 E17.90973
G1 X91.162 Y99.024 E17.95178
G1 F1500 E11.45178
;MESH:mount-Part.stl
G0 F6000 X119.071 Y109.998
G0 X117.604 Y110
G0 X118.338 Y111.014
G0 X118.416 Y111.083
G0 X119.295 Y111.692
;TYPE:WALL-INNER
G1 F1500 E17.95178
G1 F1200 X119.705 Y111.692 E17.97087
G1 X120.105 Y111.594 E17.99005
G1 X120.469 Y111.402 E18.00921
G1 X120.776 Y111.13 E18.02831
G1 X121.009 Y110.792 E18.04742
G1 X121.155 Y110.407 E18.0666
G1 X121.204 Y110 E18.08569
G1 X121.155 Y109.594 E18.10473
G1 X121.014 Y109.218 E18.12343
G1 X120.776 Y108.872 E18.14298
G1 X120.47 Y108.598 E18.16211
G1 X120.105 Y108.406 E18.18131
G1 X119.705 Y108.308 E18.20049
G1 X119.295 Y108.308 E18.21958
G1 X118.895 Y108.406 E18.23876
G1 X118.541 Y108.593 E18.2574
G1 X118.226 Y108.869 E18.2769
G1 X117.997 Y109.199 E18.2956
G1 X117.845 Y109.59 E18.31514
G1 X117.796 Y110 E18.33436
G1 X117.845 Y110.406 E18.35341
G1 X117.985 Y110.782 E18.37209
G1 X118.217 Y111.12 E18.39118
G1 X118.52 Y111.394 E18.4102
G1 X118.894 Y111.593 E18.42993
G1 X119.295 Y111.692 E18.44916
G0 F6000 X119.343 Y111.292
;TYPE:WALL-OUTER
G1 F1200 X119.657 Y111.292 E18.46378
G1 X119.962 Y111.217 E18.47841
G1 X120.24 Y111.071 E18.49303
G1 X120.474 Y110.863 E18.50761
G1 X120.652 Y110.605 E18.5222
G1 X120.764 Y110.311 E18.53685
G1 X120.801 Y110 E18.55144
G1 X120.764 Y109.689 E18.56602
G1 X120.657 Y109.404 E18.58019
G1 X120.474 Y109.138 E18.59523
G1 X120.24 Y108.929 E18.60984
G1 X119.962 Y108.783 E18.62446
G1 X119.657 Y108.708 E18.63908
G1 X119.343 Y108.708 E18.65371
G1 X119.038 Y108.783 E18.66833
G1 X118.769 Y108.925 E18.68249
G1 X118.527 Y109.137 E18.69748
G1 X118.353 Y109.388 E18.7117
G1 X118.236 Y109.688 E18.72669
G1 X118.199 Y110 E18.74132
G1 X118.236 Y110.311 E18.7559
G1 X118.343 Y110.596 E18.77008
G1 X118.52 Y110.855 E18.78469
G1 X118.752 Y111.064 E18.79923
G1 X119.038 Y111.217 E18.81433
G1 X119.343 Y111.292 E18.82896
G0 F6000 X119.291 Y111.728
G1 F1500 E12.32896
G0 F6000 X117.814 Y110.871
G0 X119.115 Y110.194
G0 X100.881 Y110.2
G0 X102.179 Y110.881
G0 X100.705 Y111.692
;TYPE:WALL-INNER
G1 F1500 E18.82896
G1 F1200 X101.105 Y111.594 E18.84813
G1 X101.469 Y111.402 E18.86729
G1 X101.776 Y111.13 E18.88639
G1 X102.009 Y110.792 E18.90551
G1 X102.155 Y110.407 E18.92468
G1 X102.204 Y110 E18.94377
G1 X102.155 Y109.594 E18.96281
G1 X102.014 Y109.218 E18.98151
G1 X101.776 Y108.872 E19.00107
G1 X101.47 Y108.598 E19.02019
G1 X101.105 Y108.406 E19.0394
G1 X100.705 Y108.308 E19.05857
G1 X100.295 Y108.308 E19.07766
G1 X99.895 Y108.406 E19.09684
G1 X99.541 Y108.593 E19.11548
G1 X99.226 Y108.869 E19.13498
G1 X98.997 Y109.199 E19.15369
G1 X98.845 Y109.59 E19.17322
G1 X98.796 Y110 E19.19245
G1 X98.845 Y110.406 E19.21149
G1 X98.985 Y110.782 E19.23017
G1 X99.217 Y111.12 E19.24926
G1 X99.52 Y111.394 E19.26829
G1 X99.894 Y111.593 E19.28801
G1 X100.295 Y111.692 E19.30725
G1 X100.705 Y111.692 E19.32634
G0 F6000 X100.657 Y111.292
;TYPE:WALL-OUTER
G1 F1200 X100.962 Y111.217 E19.34096
G1 X101.24 Y111.071 E19.35558
G1 X101.474 Y110.863 E19.37016
G1 X101.652 Y110.605 E19.38476
G1 X101.764 Y110.311 E19.39941
G1 X101.801 Y110 E19.41399
G1 X101.764 Y109.689 E19.42857
G1 X101.657 Y109.404 E19.44275
G1 X101.474 Y109.138 E19.45778
G1 X101.24 Y108.929 E19.47239
G1 X100.962 Y108.783 E19.48701
G1 X100.657 Y108.708 E19.50164
G1 X100.343 Y108.708 E19.51626
G1 X100.038 Y108.783 E19.53089
G1 X99.769 Y108.925 E19.54505
G1 X99.527 Y109.137 E19.56003
G1 X99.353 Y109.388 E19.57425
G1 X99.236 Y109.688 E19.58925
G1 X99.199 Y110 E19.60388
G1 X99.236 Y110.311 E19.61846
G1 X99.343 Y110.596 E19.63263
G1 X99.52 Y110.855 E19.64724
G1 X99.752 Y111.064 E19.66178
G1 X100.038 Y111.217 E19.67689
G1 X100.343 Y111.292 E19.69151
G1 X100.657 Y111.292 E19.70613
G0 F6000 X100.709 Y111.728
G1 F1500 E13.20613
G0 F6000 X99.1 Y111.297
G0 X98.31 Y111.297
G0 X98.1 Y112.4
;TYPE:WALL-INNER
G1 F1500 E19.70613
G1 F1200 X98.1 Y107.6 E19.92964
G1 X121.9 Y107.6 E21.03787
G1 X121.9 Y112.4 E21.26138
G1 X98.1 Y112.4 E22.3696
G0 F6000 X97.7 Y112.8
;TYPE:WALL-OUTER
G1 F1200 X97.7 Y107.2 E22.63036
G1 X122.3 Y107.2 E23.77584
G1 X122.3 Y112.8 E24.0366
G1 X97.7 Y112.8 E25.18208
G0 F6000 X97.97 Y112.53
G0 X98.21 Y112.01
G0 X98.49 Y112.01
;TYPE:SKIN
G1 F1200 X98.49 Y110.571 E25.24909
G1 X98.636 Y110.963 E25.26856
G1 X98.921 Y111.379 E25.29204
G1 X99.294 Y111.716 E25.31545
G1 X99.754 Y111.96 E25.3397
G1 X99.956 Y112.01 E25.34939
G1 X98.49 Y112.01 E25.41765
G1 F1500 E18.91765
G0 F6000 X98.21 Y112.01
G0 X98.274 Y112.197
G0 X100.981 Y112.19
G0 X100.901 Y111.86
G0 X100.981 Y111.738
G0 X101.045 Y112.01
G1 F1500 E25.41765
G1 F1200 X101.245 Y111.961 E25.42724
G1 X101.693 Y111.725 E25.45082
G1 X102.07 Y111.391 E25.47427
G1 X102.356 Y110.975 E25.49778
G1 X102.537 Y110.501 E25.5214
G1 X102.596 Y110 E25.54489
G1 X102.537 Y109.501 E25.56829
G1 X102.363 Y109.036 E25.59141
G1 X102.071 Y108.613 E25.61534
G1 X101.694 Y108.276 E25.63889
G1 X101.244 Y108.039 E25.66257
G1 X101.045 Y107.99 E25.67211
G1 X118.955 Y107.99 E26.50608
G1 X118.755 Y108.039 E26.51567
G1 X118.319 Y108.269 E26.53862
G1 X117.933 Y108.607 E26.56251
G1 X117.65 Y109.014 E26.58559
G1 X117.463 Y109.495 E26.60962
G1 X117.404 Y110 E26.6333
G1 X117.463 Y110.499 E26.6567
G1 X117.636 Y110.963 E26.67976
G1 X117.921 Y111.379 E26.70324
G1 X118.294 Y111.716 E26.72664
G1 X118.754 Y111.96 E26.75089
G1 X118.956 Y112.01 E26.76058
G1 X101.045 Y112.01 E27.59459
G1 F1500 E21.09459
G0 F6000 X100.981 Y111.738
G0 X99.952 Y111.442
G0 X99.614 Y111.261
G0 X99.338 Y111.014
G0 X99.22 Y110.841
G0 X98.659 Y109.543
G0 X98.31 Y109.543
G0 X98.21 Y109.426
G0 X98.49 Y109.426
G1 F1500 E27.59459
G1 F1200 X98.49 Y107.99 E27.66146
G1 X99.955 Y107.99 E27.72967
G1 X99.755 Y108.039 E27.73926
G1 X99.319 Y108.269 E27.76222
G1 X98.933 Y108.607 E27.78611
G1 X98.65 Y109.014 E27.80919
G1 X98.49 Y109.426 E27.82977
G1 F1500 E21.32977
G0 F6000 X98.21 Y109.426
G0 X98.31 Y108.261
G0 X96.835 Y108.261
G0 X119.121 Y109.796
G0 X117.827 Y109.109
G0 X118.737 Y108.664
G0 X119.979 Y108.261
G0 X120.045 Y107.99
G1 F1500 E27.82977
G1 F1200 X121.51 Y107.99 E27.89799
G1 X121.51 Y109.429 E27.96499
G1 X121.363 Y109.036 E27.98453
G1 X121.071 Y108.613 E28.00846
G1 X120.694 Y108.276 E28.03201
G1 X120.244 Y108.039 E28.05569
G1 X120.045 Y107.99 E28.06524
G0 F6000 X119.979 Y108.261
G0 X120.655 Y108.979
G0 X120.871 Y109.293
G0 X120.998 Y109.632
G0 X121.042 Y110
G0 X120.998 Y110.368
G0 X120.865 Y110.717
G0 X120.806 Y110.803
G0 X119.98 Y111.738
G0 X120.045 Y112.01
G1 F1200 X120.245 Y111.961 E28.07482
G1 X120.693 Y111.725 E28.0984
G1 X121.07 Y111.391 E28.12185
G1 X121.356 Y110.975 E28.14536
G1 X121.51 Y110.572 E28.16545
G1 X121.51 Y112.01 E28.23241
G1 X120.045 Y112.01 E28.30063
G1 F1500 E21.80063
G0 F6000 X119.981 Y111.738
G0 X120.654 Y111.022
G0 X120.865 Y110.717
G0 X120.939 Y110.52
G0 X121.185 Y109.129
G0 X121.69 Y109.129
G0 X121.79 Y108.338
G0 X121.349 Y108.338
G1 F1500 E28.30063
G1 F1200 X121.161 Y108.15 E28.31301
G1 F1500 E21.81301
G0 F6000 X121.161 Y107.71
G0 X118.262 Y107.81
G0 X118.432 Y108.435
G0 X118.262 Y108.69
G0 X117.973 Y108.357
G1 F1500 E28.31301
G1 F1200 X117.766 Y108.149 E28.32667
G0 F6000 X117.704 Y108.654
