;FLAVOR:Marlin
;TIME:4544
;Filament used: 3.32989m
;Layer height: 0.28
;MINX:63.936
;MINY:64.939
;MINZ:0.28
;MAXX:156.037
;MAXY:155.062
;MAXZ:21.84
;Generated with Cura_SteamEngine 4.4.1
M140 S70
M105
M190 S70
M104 S200
M105
M109 S200
M82 ;absolute extrusion mode
M201 X500.00 Y500.00 Z100.00 E5000.00 ;Setup machine max acceleration
M203 X500.00 Y500.00 Z10.00 E50.00 ;Setup machine max feedrate
M204 P500.00 R1000.00 T500.00 ;Setup Print/Retract/Travel acceleration
M205 X8.00 Y8.00 Z0.40 E5.00 ;Setup Jerk
M220 S100 ;Reset Feedrate
M221 S100 ;Reset Flowrate

G28 ;Home

G92 E0 ;Reset Extruder
G1 Z2.0 F3000 ;Move Z Axis up
G1 X10.1 Y20 Z0.28 F5000.0 ;Move to start position
G1 X10.1 Y200.0 Z0.28 F1500.0 E15 ;Draw the first line
G1 X10.4 Y200.0 Z0.28 F5000.0 ;Move to side a little
G1 X10.4 Y20 Z0.28 F1500.0 E30 ;Draw the second line
G92 E0 ;Reset Extruder
G1 Z2.0 F3000 ;Move Z Axis up

G92 E0
G92 E0
G1 F1500 E-6.5
;LAYER_COUNT:78
;LAYER:0
M107
G0 F6000 X77.52 Y77.755 Z0.28
;TYPE:SKIRT
G1 F1500 E0
G1 F1200 X77.685 Y77.594 E0.01073
G1 X77.989 Y77.304 E0.0303
G1 X78.114 Y77.186 E0.0383
G1 X78.512 Y76.818 E0.06354
G1 X78.628 Y76.713 E0.07083
G1 X79.308 Y76.102 E0.1134
G1 X79.557 Y75.885 E0.12878
G1 X80.14 Y75.392 E0.16433
G1 X80.289 Y75.268 E0.17335
G1 X80.604 Y75.011 E0.19228
G1 X80.877 Y74.795 E0.20849
G1 X81.514 Y74.308 E0.24583
G1 X81.938 Y73.975 E0.27094
G1 X82.211 Y73.767 E0.28692
G1 X82.722 Y73.391 E0.31646
G1 X83.021 Y73.179 E0.33353
G1 X83.759 Y72.673 E0.37519
G1 X83.936 Y72.553 E0.38515
G1 X84.727 Y72.033 E0.42923
G1 X85.002 Y71.858 E0.44441
G1 X85.559 Y71.515 E0.47486
G1 X85.734 Y71.41 E0.48437
G1 X86.552 Y70.927 E0.5286
G1 X86.823 Y70.772 E0.54314
G1 X87.485 Y70.406 E0.57836
G1 X87.656 Y70.314 E0.5874
G1 X88.373 Y69.934 E0.62519
G1 X88.656 Y69.789 E0.64
G1 X89.116 Y69.562 E0.66388
G1 X89.229 Y69.507 E0.66973
G1 X89.64 Y69.31 E0.69096
G1 X89.837 Y69.218 E0.70108
G1 X90.911 Y68.729 E0.75603
G1 X91.181 Y68.61 E0.76977
G1 X91.611 Y68.428 E0.79151
G1 X91.766 Y68.364 E0.79932
G1 X92.538 Y68.051 E0.83811
G1 X92.775 Y67.958 E0.84996
G1 X93.142 Y67.819 E0.86824
G1 X93.308 Y67.758 E0.87647
G1 X93.788 Y67.585 E0.90023
G1 X93.904 Y67.544 E0.90596
G1 X94.798 Y67.233 E0.95004
G1 X95.121 Y67.126 E0.96588
G1 X95.81 Y66.91 E0.9995
G1 X95.993 Y66.854 E1.00841
G1 X96.655 Y66.659 E1.04055
G1 X96.98 Y66.569 E1.05625
G1 X97.932 Y66.32 E1.10207
G1 X98.192 Y66.255 E1.11455
G1 X99.321 Y65.989 E1.16856
G1 X99.648 Y65.917 E1.18415
G1 X100.242 Y65.796 E1.21238
G1 X100.406 Y65.764 E1.22016
G1 X100.853 Y65.68 E1.24134
G1 X101.191 Y65.622 E1.25731
G1 X102.667 Y65.392 E1.32687
G1 X102.893 Y65.359 E1.3375
G1 X103.68 Y65.253 E1.37448
G1 X104.001 Y65.215 E1.38953
G1 X104.583 Y65.154 E1.41678
G1 X104.796 Y65.134 E1.42674
G1 X105.512 Y65.073 E1.4602
G1 X105.845 Y65.049 E1.47575
G1 X106.96 Y64.988 E1.52774
G1 X107.193 Y64.978 E1.5386
G1 X108.06 Y64.949 E1.579
G1 X108.335 Y64.943 E1.5918
G1 X108.806 Y64.939 E1.61374
G1 X108.956 Y64.939 E1.62072
G1 X109.341 Y64.941 E1.63865
G1 X109.466 Y64.943 E1.64447
G1 X110.37 Y64.958 E1.68657
G1 X110.728 Y64.969 E1.70325
G1 X111.522 Y65.008 E1.74026
G1 X111.724 Y65.02 E1.74969
G1 X112.552 Y65.076 E1.78833
G1 X112.779 Y65.094 E1.79893
G1 X113.141 Y65.126 E1.81586
G1 X113.314 Y65.142 E1.82395
G1 X113.659 Y65.178 E1.8401
G1 X113.827 Y65.197 E1.84797
G1 X114.969 Y65.334 E1.90153
G1 X115.298 Y65.379 E1.91699
G1 X115.882 Y65.467 E1.94449
G1 X116.029 Y65.49 E1.95142
G1 X116.825 Y65.621 E1.98898
G1 X117.156 Y65.681 E2.00465
G1 X117.987 Y65.844 E2.04408
G1 X118.223 Y65.893 E2.0553
G1 X119.173 Y66.101 E2.10059
G1 X119.412 Y66.156 E2.11201
G1 X119.643 Y66.212 E2.12307
G1 X119.758 Y66.24 E2.12858
G1 X120.274 Y66.371 E2.15337
G1 X120.404 Y66.405 E2.15963
G1 X121.157 Y66.606 E2.19592
G1 X121.497 Y66.703 E2.21238
G1 X122.339 Y66.957 E2.25334
G1 X122.573 Y67.03 E2.26475
G1 X123.453 Y67.317 E2.30785
G1 X123.755 Y67.421 E2.32272
G1 X124.48 Y67.681 E2.35859
G1 X124.646 Y67.742 E2.36682
G1 X125.044 Y67.892 E2.38663
G1 X125.421 Y68.042 E2.40552
G1 X126.215 Y68.375 E2.44561
G1 X126.778 Y68.602 E2.47388
G1 X127.105 Y68.74 E2.49041
G1 X127.765 Y69.031 E2.52399
G1 X128.068 Y69.17 E2.53952
G1 X128.627 Y69.437 E2.56836
G1 X128.796 Y69.519 E2.57711
G1 X129.606 Y69.923 E2.61926
G1 X129.914 Y70.083 E2.63542
G1 X130.623 Y70.465 E2.67292
G1 X130.809 Y70.568 E2.68282
G1 X131.644 Y71.039 E2.72746
G1 X131.876 Y71.174 E2.73996
G1 X132.057 Y71.282 E2.74977
G1 X132.149 Y71.337 E2.75476
G1 X132.654 Y71.645 E2.78231
G1 X132.78 Y71.723 E2.78921
G1 X133.418 Y72.124 E2.8243
G1 X133.644 Y72.27 E2.83683
G1 X134.027 Y72.524 E2.85823
G1 X134.153 Y72.609 E2.8653
G1 X134.472 Y72.827 E2.88329
G1 X134.588 Y72.907 E2.88986
G1 X135.347 Y73.44 E2.93304
G1 X135.625 Y73.642 E2.94904
G1 X136.237 Y74.101 E2.98466
G1 X136.411 Y74.234 E2.99486
G1 X137.171 Y74.828 E3.03978
G1 X137.404 Y75.016 E3.05372
G1 X137.98 Y75.492 E3.08851
G1 X138.145 Y75.631 E3.09856
G1 X139.719 Y76.985 E3.19524
G1 X141.119 Y78.165 E3.28049
G1 X142.519 Y79.299 E3.36439
G1 X143.49 Y80.071 E3.42215
G1 X144.198 Y80.685 E3.46579
G1 X144.852 Y81.358 E3.50948
G1 X145.446 Y82.083 E3.55313
G1 X145.976 Y82.857 E3.59681
G1 X146.237 Y83.298 E3.62067
G1 X146.618 Y83.977 E3.65692
G1 X146.731 Y84.184 E3.66791
G1 X147.275 Y85.204 E3.72173
G1 X148.52 Y87.391 E3.83891
G1 X149.824 Y89.534 E3.95572
G1 X151.183 Y91.637 E4.07231
G1 X153.248 Y94.605 E4.24068
G1 X153.732 Y95.272 E4.27905
G1 X154.25 Y96.054 E4.32273
G1 X154.699 Y96.877 E4.36638
G1 X155.077 Y97.735 E4.41004
G1 X155.381 Y98.622 E4.4537
G1 X155.607 Y99.532 E4.49736
G1 X155.756 Y100.459 E4.54108
G1 X155.821 Y101.3 E4.58036
G1 X155.83 Y101.528 E4.59098
G1 X155.838 Y101.845 E4.60575
G1 X155.841 Y102.126 E4.61883
G1 X155.842 Y102.243 E4.62428
G1 X155.842 Y104.525 E4.73054
G1 X155.841 Y104.683 E4.7379
G1 X155.824 Y105.869 E4.79313
G1 X155.824 Y108.446 E4.91312
G1 X155.896 Y111.012 E5.03266
G1 X156.017 Y113.339 E5.14116
G1 X156.031 Y113.772 E5.16133
G1 X156.034 Y114.008 E5.17232
G1 X156.035 Y114.137 E5.17833
G1 X156.037 Y116.201 E5.27444
G1 X156.036 Y116.349 E5.28133
G1 X156.028 Y116.99 E5.31118
G1 X156.019 Y117.313 E5.32622
G1 X155.984 Y118.15 E5.36523
G1 X155.977 Y118.308 E5.3726
G1 X155.926 Y119.215 E5.4149
G1 X155.831 Y123.707 E5.62411
G1 X155.771 Y124.643 E5.66778
G1 X155.631 Y125.571 E5.71148
G1 X155.414 Y126.483 E5.75514
G1 X155.119 Y127.374 E5.79884
G1 X154.75 Y128.236 E5.8425
G1 X154.308 Y129.063 E5.88616
G1 X153.798 Y129.85 E5.92983
G1 X153.222 Y130.59 E5.9735
G1 X152.585 Y131.279 E6.01719
G1 X152.12 Y131.715 E6.04687
G1 X150.944 Y132.755 E6.11997
G1 X150.79 Y132.889 E6.12948
G1 X150.672 Y132.99 E6.13671
G1 X148.78 Y134.686 E6.25503
G1 X146.995 Y136.378 E6.36955
G1 X145.155 Y138.227 E6.49101
G1 X144.775 Y138.628 E6.51674
G1 X144.681 Y138.726 E6.52306
G1 X144.087 Y139.338 E6.56277
G1 X143.155 Y140.194 E6.6217
G1 X142.728 Y140.543 E6.64738
G1 X142.61 Y140.638 E6.65443
G1 X141.413 Y141.589 E6.72562
G1 X139.462 Y143.233 E6.84442
G1 X139.213 Y143.453 E6.85989
G1 X139.062 Y143.584 E6.8692
G1 X137.95 Y144.533 E6.93727
G1 X137.788 Y144.668 E6.94709
G1 X137.28 Y145.085 E6.97769
G1 X137.014 Y145.297 E6.99353
G1 X136.121 Y145.985 E7.04602
G1 X135.921 Y146.135 E7.05766
G1 X135.231 Y146.642 E7.09753
G1 X135.006 Y146.803 E7.11042
G1 X134.762 Y146.973 E7.12426
G1 X134.611 Y147.077 E7.1328
G1 X133.781 Y147.635 E7.17937
G1 X133.403 Y147.878 E7.2003
G1 X132.7 Y148.31 E7.23872
G1 X132.048 Y148.717 E7.27451
G1 X131.829 Y148.851 E7.28646
G1 X131.537 Y149.024 E7.30227
G1 X131.3 Y149.16 E7.31499
G1 X130.98 Y149.339 E7.33206
G1 X130.864 Y149.403 E7.33823
G1 X130.417 Y149.646 E7.36192
G1 X130.29 Y149.714 E7.36863
G1 X129.508 Y150.126 E7.40979
G1 X129.195 Y150.285 E7.42614
G1 X128.445 Y150.65 E7.46498
G1 X128.265 Y150.735 E7.47424
G1 X127.533 Y151.075 E7.51183
G1 X127.24 Y151.206 E7.52677
G1 X126.453 Y151.544 E7.56665
G1 X126.243 Y151.632 E7.57726
G1 X125.399 Y151.974 E7.61966
G1 X125.082 Y152.097 E7.63549
G1 X124.357 Y152.365 E7.67149
G1 X124.164 Y152.434 E7.68103
G1 X123.292 Y152.738 E7.72403
G1 X122.972 Y152.844 E7.73973
G1 X122.209 Y153.084 E7.77697
G1 X122.01 Y153.145 E7.78666
G1 X121.697 Y153.237 E7.80185
G1 X121.335 Y153.336 E7.81933
G1 X120.829 Y153.466 E7.84366
G1 X119.899 Y153.719 E7.88854
G1 X119.588 Y153.798 E7.90348
G1 X118.99 Y153.942 E7.93212
G1 X118.682 Y154.012 E7.94683
G1 X117.946 Y154.167 E7.98185
G1 X117.706 Y154.215 E7.99325
G1 X116.81 Y154.383 E8.03569
G1 X116.526 Y154.432 E8.04911
G1 X116.146 Y154.493 E8.06703
G1 X116.021 Y154.512 E8.07292
G1 X115.557 Y154.581 E8.09477
G1 X115.43 Y154.6 E8.10074
G1 X114.516 Y154.725 E8.1437
G1 X114.167 Y154.767 E8.16007
G1 X113.429 Y154.844 E8.19462
G1 X113.218 Y154.864 E8.20449
G1 X112.394 Y154.934 E8.243
G1 X112.12 Y154.953 E8.25578
G1 X111.635 Y154.982 E8.27841
G1 X111.497 Y154.99 E8.28485
G1 X110.968 Y155.015 E8.30951
G1 X110.816 Y155.021 E8.31659
G1 X109.857 Y155.053 E8.36127
G1 X109.546 Y155.059 E8.37575
G1 X108.957 Y155.062 E8.40318
G1 X108.743 Y155.061 E8.41314
G1 X107.907 Y155.049 E8.45208
G1 X107.62 Y155.041 E8.46545
G1 X107.151 Y155.022 E8.4873
G1 X107.021 Y155.016 E8.49336
G1 X106.429 Y154.985 E8.52097
G1 X106.281 Y154.976 E8.52787
G1 X105.431 Y154.92 E8.56753
G1 X105.118 Y154.895 E8.58216
G1 X104.452 Y154.832 E8.61331
G1 X104.224 Y154.808 E8.62398
G1 X103.299 Y154.701 E8.66734
G1 X102.979 Y154.659 E8.68237
G1 X102.223 Y154.549 E8.71794
G1 X102.013 Y154.517 E8.72783
G1 X101.154 Y154.375 E8.76837
G1 X100.883 Y154.327 E8.78119
G1 X100.412 Y154.237 E8.80352
G1 X100.263 Y154.207 E8.8106
G1 X99.898 Y154.132 E8.82795
G1 X99.746 Y154.1 E8.83518
G1 X98.756 Y153.882 E8.88238
G1 X98.436 Y153.806 E8.8977
G1 X97.757 Y153.635 E8.9303
G1 X97.617 Y153.599 E8.93703
G1 X96.97 Y153.427 E8.96821
G1 X96.654 Y153.338 E8.98349
G1 X95.832 Y153.093 E9.02343
G1 X95.663 Y153.041 E9.03167
G1 X95.305 Y152.928 E9.04915
G1 X95.156 Y152.88 E9.05644
G1 X94.157 Y152.549 E9.10544
G1 X93.812 Y152.428 E9.12246
G1 X93.058 Y152.15 E9.15988
G1 X92.574 Y151.958 E9.18413
G1 X92.265 Y151.827 E9.19976
G1 X91.318 Y151.444 E9.24732
G1 X91.051 Y151.332 E9.26081
G1 X90.461 Y151.075 E9.29077
G1 X90.17 Y150.943 E9.30565
G1 X89.898 Y150.815 E9.31965
G1 X89.807 Y150.772 E9.32434
G1 X89.257 Y150.507 E9.35276
G1 X89.134 Y150.446 E9.35916
G1 X88.402 Y150.082 E9.39722
G1 X88.082 Y149.917 E9.41399
G1 X87.386 Y149.542 E9.4508
G1 X87.211 Y149.445 E9.46012
G1 X86.452 Y149.018 E9.50067
G1 X86.158 Y148.847 E9.51651
G1 X85.456 Y148.423 E9.55469
G1 X85.281 Y148.315 E9.56427
G1 X84.522 Y147.837 E9.60604
G1 X84.302 Y147.694 E9.61826
G1 X83.972 Y147.475 E9.6367
G1 X83.866 Y147.404 E9.64264
G1 X83.478 Y147.14 E9.66449
G1 X83.322 Y147.033 E9.6733
G1 X82.659 Y146.565 E9.71109
G1 X82.423 Y146.393 E9.72469
G1 X81.792 Y145.922 E9.76135
G1 X81.597 Y145.773 E9.77278
G1 X80.827 Y145.171 E9.81829
G1 X80.617 Y145.002 E9.83084
G1 X80.381 Y144.808 E9.84507
G1 X80.289 Y144.732 E9.85062
G1 X79.888 Y144.395 E9.87501
G1 X79.771 Y144.295 E9.88218
G1 X79.062 Y143.682 E9.92582
G1 X78.811 Y143.458 E9.94149
G1 X78.277 Y142.967 E9.97527
G1 X78.137 Y142.836 E9.98419
G1 X77.719 Y142.438 E10.01107
G1 X77.48 Y142.204 E10.02664
G1 X76.635 Y141.349 E10.08262
G1 X76.478 Y141.187 E10.09312
G1 X75.908 Y140.586 E10.13169
G1 X75.704 Y140.365 E10.1457
G1 X75.502 Y140.14 E10.15978
G1 X75.43 Y140.059 E10.16482
G1 X75.07 Y139.65 E10.1902
G1 X74.964 Y139.528 E10.19772
G1 X74.365 Y138.827 E10.24066
G1 X74.17 Y138.592 E10.25488
G1 X73.721 Y138.036 E10.28815
G1 X73.596 Y137.878 E10.29753
G1 X73.162 Y137.32 E10.33045
G1 X72.96 Y137.053 E10.34604
G1 X72.376 Y136.253 E10.39216
G1 X72.249 Y136.074 E10.40238
G1 X71.743 Y135.351 E10.44347
G1 X71.548 Y135.063 E10.45967
G1 X71.095 Y134.37 E10.49822
G1 X70.986 Y134.201 E10.50758
G1 X70.532 Y133.478 E10.54734
G1 X70.348 Y133.173 E10.56392
G1 X69.926 Y132.45 E10.60291
G1 X69.823 Y132.271 E10.61252
G1 X69.419 Y131.548 E10.65109
G1 X69.252 Y131.237 E10.66752
G1 X68.835 Y130.431 E10.70978
G1 X68.751 Y130.264 E10.71848
G1 X68.375 Y129.506 E10.75788
G1 X68.216 Y129.172 E10.77511
G1 X67.844 Y128.354 E10.81695
G1 X67.759 Y128.163 E10.82669
G1 X67.438 Y127.42 E10.86438
G1 X67.318 Y127.13 E10.87899
G1 X67.043 Y126.44 E10.91358
G1 X66.966 Y126.243 E10.92343
G1 X66.617 Y125.316 E10.96955
G1 X66.497 Y124.979 E10.98621
G1 X66.25 Y124.252 E11.02196
G1 X66.196 Y124.09 E11.02991
G1 X65.947 Y123.318 E11.06768
G1 X65.844 Y122.98 E11.08413
G1 X65.602 Y122.138 E11.12493
G1 X65.536 Y121.898 E11.13652
G1 X65.296 Y120.986 E11.18043
G1 X65.237 Y120.749 E11.1918
G1 X65.18 Y120.511 E11.2032
G1 X65.152 Y120.393 E11.20885
G1 X65.031 Y119.862 E11.23421
G1 X64.999 Y119.719 E11.24103
G1 X64.799 Y118.784 E11.28555
G1 X64.732 Y118.442 E11.30178
G1 X64.61 Y117.768 E11.33367
G1 X64.575 Y117.567 E11.34317
G1 X64.496 Y117.079 E11.36619
G1 X64.445 Y116.729 E11.38266
G1 X64.342 Y115.931 E11.42013
G1 X64.279 Y115.494 E11.44069
G1 X64.237 Y115.17 E11.4559
G1 X64.158 Y114.47 E11.4887
G1 X64.126 Y114.137 E11.50428
G1 X64.059 Y113.322 E11.54236
G1 X64.043 Y113.099 E11.55277
G1 X64 Y112.403 E11.58524
G1 X63.984 Y112.066 E11.60095
G1 X63.948 Y110.906 E11.65499
G1 X63.944 Y110.691 E11.665
G1 X63.936 Y109.995 E11.69741
G1 X63.936 Y109.695 E11.71138
G1 X63.946 Y109.064 E11.74077
G1 X63.95 Y108.912 E11.74785
G1 X63.963 Y108.474 E11.76825
G1 X63.968 Y108.332 E11.77487
G1 X64.007 Y107.417 E11.81751
G1 X64.026 Y107.087 E11.8329
G1 X64.067 Y106.523 E11.85924
G1 X64.081 Y106.347 E11.86746
G1 X64.154 Y105.526 E11.90584
G1 X64.191 Y105.174 E11.92232
G1 X64.292 Y104.342 E11.96134
G1 X64.319 Y104.136 E11.97102
G1 X64.445 Y103.24 E12.01315
G1 X64.498 Y102.9 E12.02917
G1 X64.641 Y102.072 E12.0683
G1 X64.674 Y101.895 E12.07668
G1 X64.798 Y101.241 E12.10768
G1 X64.874 Y100.873 E12.12518
G1 X65.113 Y99.812 E12.17582
G1 X65.194 Y99.476 E12.19191
G1 X65.668 Y97.642 E12.28012
G1 X65.771 Y97.269 E12.29814
G1 X65.91 Y96.8 E12.32091
G1 X66.002 Y96.507 E12.33521
G1 X66.21 Y95.871 E12.36637
G1 X66.257 Y95.731 E12.37325
G1 X66.39 Y95.342 E12.39239
G1 X66.435 Y95.211 E12.39884
G1 X66.753 Y94.318 E12.44298
G1 X66.865 Y94.019 E12.45785
G1 X67.093 Y93.433 E12.48713
G1 X67.172 Y93.236 E12.49701
G1 X67.558 Y92.298 E12.54424
G1 X67.703 Y91.962 E12.56128
G1 X68.002 Y91.299 E12.59515
G1 X68.069 Y91.152 E12.60267
G1 X68.415 Y90.414 E12.64062
G1 X68.541 Y90.155 E12.65404
G1 X68.769 Y89.7 E12.67773
G1 X68.83 Y89.579 E12.68404
G1 X69.047 Y89.159 E12.70606
G1 X69.117 Y89.026 E12.71305
G1 X69.548 Y88.219 E12.75565
G1 X69.713 Y87.922 E12.77148
G1 X70.018 Y87.391 E12.79999
G1 X70.114 Y87.227 E12.80884
G1 X70.576 Y86.454 E12.85077
G1 X70.718 Y86.223 E12.8634
G1 X70.91 Y85.919 E12.88014
G1 X70.975 Y85.816 E12.88581
G1 X71.23 Y85.422 E12.90766
G1 X71.315 Y85.294 E12.91482
G1 X71.746 Y84.648 E12.95098
G1 X71.913 Y84.404 E12.96475
G1 X72.407 Y83.705 E13.0046
G1 X72.556 Y83.499 E13.01644
G1 X73.16 Y82.685 E13.06364
G1 X73.313 Y82.484 E13.0754
G1 X73.478 Y82.272 E13.08791
G1 X73.558 Y82.171 E13.09391
G1 X73.853 Y81.801 E13.11595
G1 X73.952 Y81.678 E13.1233
G1 X74.507 Y81.002 E13.16403
G1 X74.675 Y80.802 E13.17619
G1 X74.98 Y80.448 E13.19795
G1 X75.198 Y80.203 E13.21322
G1 X76.337 Y78.958 E13.29179
G1 X76.547 Y78.734 E13.30609
G1 X76.785 Y78.488 E13.32202
G1 X76.933 Y78.339 E13.3318
G1 X77.52 Y77.755 E13.37036
G0 F6000 X77.802 Y78.038
G1 F1200 X77.961 Y77.883 E13.3807
G1 X78.265 Y77.593 E13.40026
G1 X78.386 Y77.48 E13.40797
G1 X78.784 Y77.112 E13.43321
G1 X78.895 Y77.01 E13.44023
G1 X79.575 Y76.399 E13.4828
G1 X79.816 Y76.19 E13.49765
G1 X80.399 Y75.697 E13.53321
G1 X80.542 Y75.578 E13.54187
G1 X80.857 Y75.321 E13.5608
G1 X81.12 Y75.113 E13.57641
G1 X81.708 Y74.663 E13.61089
G1 X82.185 Y74.289 E13.63911
G1 X82.448 Y74.089 E13.6545
G1 X82.959 Y73.713 E13.68404
G1 X83.247 Y73.509 E13.70048
G1 X83.985 Y73.003 E13.74214
G1 X84.156 Y72.888 E13.75174
G1 X84.947 Y72.368 E13.79582
G1 X85.212 Y72.199 E13.81045
G1 X85.769 Y71.856 E13.84091
G1 X85.937 Y71.754 E13.85006
G1 X86.755 Y71.271 E13.8943
G1 X87.016 Y71.122 E13.90829
G1 X87.678 Y70.756 E13.94351
G1 X87.843 Y70.667 E13.95224
G1 X88.56 Y70.287 E13.99003
G1 X88.833 Y70.147 E14.00431
G1 X89.293 Y69.92 E14.0282
